www/assets/icons/wifi_password.svg

<svg xmlns="http://www.w3.org/2000/svg" width="24" height="24" viewBox="0 0 24 24" fill='currentColor'><path d="M23 17v-1c0-1.1-.9-2-2-2s-2 .9-2 2v1c-.55 0-1 .45-1 1v3c0 .55.45 1 1 1h4c.55 0 1-.45 1-1v-3c0-.55-.45-1-1-1m-1 0h-2v-1c0-.55.45-1 1-1s1 .45 1 1zm2-10.02-2.12 2.13A13.9 13.9 0 0 0 12 5C8.15 5 4.65 6.57 2.12 9.11L0 6.98A16.88 16.88 0 0 1 12 2c4.69 0 8.93 1.9 12 4.98M12 8c3.03 0 5.78 1.23 7.76 3.22l-2.12 2.12A7.97 7.97 0 0 0 12 11c-2.2 0-4.2.9-5.64 2.35l-2.12-2.12C6.22 9.23 8.97 8 12 8m3.53 7.46L12 19l-3.53-3.54c.9-.9 2.15-1.46 3.53-1.46s2.63.56 3.53 1.46"/></svg>

<svg width="24" height="24" viewBox="0 0 24 24" xmlns="http://www.w3.org/2000/svg" fill='currentColor'><path d="M23 17V16C23 14.9 22.1 14 21 14C19.9 14 19 14.9 19 16V17C18.45 17 18 17.45 18 18V21C18 21.55 18.45 22 19 22H23C23.55 22 24 21.55 24 21V18C24 17.45 23.55 17 23 17ZM22 17H20V16C20 15.45 20.45 15 21 15C21.55 15 22 15.45 22 16V17ZM24 6.98L21.88 9.11C19.35 6.57 15.85 5 12 5C8.15 5 4.65 6.57 2.12 9.11L0 6.98C3.07 3.9 7.31 2 12 2C16.69 2 20.93 3.9 24 6.98ZM12 8C15.03 8 17.78 9.23 19.76 11.22L17.64 13.34C16.2 11.9 14.2 11 12 11C9.8 11 7.8 11.9 6.36 13.35L4.24 11.23C6.22 9.23 8.97 8 12 8ZM15.53 15.46L12 19L8.47 15.46C9.37 14.56 10.62 14 12 14C13.38 14 14.63 14.56 15.53 15.46Z"/></svg>
